X:6
T:Cotton Patch Rag
C:Trad
S:Byron Berline
M:2/4
L:1/8
Q:100
K:C
e e^f!|"C"g^faf gecd|eged ceAG|"F"FEFG AFAB|cdcB A2dc|"G"BdcB ABA^F|GABc
 dcBd|"C"cBcd edce|g^fga baga| eg2a gecd|eged ceAG|"F"FEFG AFAB|cdcB A2d
c|"G"BdcB ABA^F|GABd g2ef|gbag edBG|"C"E4c4||%
EGGAG GAE_E=E|GAGGAE|
